X: 54
T: Praeludia organi op. 5 – Andantino
C: Franciszek Walczyński
%%abc-version 2.0
%%abcx-abcm2ps-target-version 5.9.1 (29 Sep 2008)
%%abc-creator hum2abc beta
%%abcx-conversion-date 2021/10/04 07:38:40
%%abc-edited-by Andrzej Borzym
%%abc-edited-by Krzysztof Stępień
%%abcx-initial-encoding-date 2021-07-26
%%humdrum-veritas 3007278555
%%humdrum-veritas-data 442169856
%%linebreak <none>
%%barnumbers 0
L: 1/8
M: 3/8
N: Derived from pl-kozmzk--mzk-m-159--043_walczynski-franciszek--praeludia-organi-op-5-andantino.krn
Q: "43. Andantino."
%%staves {1 2}
V: 1 clef=treble
V: 2 clef=bass
K: Bb
[V:1] B3 & G3 | 
[V:2] G,B,D | 
[V:1] A3 & ^F3 | 
[V:2] EDC | 
[V:1] GAB & D3 | 
[V:2] B,A,G, | 
[V:1] A3 & D3 | 
[V:2] G,=E,^F, | 
[V:1] B3 & D^CD | 
[V:2] G,3 | 
[V:1] =B3 & _AGF | 
[V:2] =F,3 | 
[V:1] c2^c & G=AG- | 
[V:2] _E,3 | 
[V:1] !fermata!d3 & G=E!fermata!^F | 
[V:2] !fermata!D,3 | 
[V:1] z3 & z3 | 
[V:2] DC.A, | 
[V:1] z3 & z3 | 
[V:2] CB,.G, | 
[V:1] z3 & dc.A | 
[V:2] ^F,3 | 
[V:1] z3 & cB.G | 
[V:2] G,2A, | 
[V:1] gf.d & G3- | 
[V:2] =B,3 | 
[V:1] fe.c & G3- | 
[V:2] C2E | 
[V:1] _BcB & GAG | 
[V:2] D3 | 
[V:1] ABA & ^FG/D/C | 
[V:2] D,3 | 
[V:1] G3- & =B,3 | 
[V:2] G,=F,.D, | 
[V:1] G3 & C2E- | 
[V:2] F,E,.C, | 
[V:1] ^F3 & EDC | 
[V:2] D,3 | 
[V:1] G3- & B,3- | 
[V:2] G,D,B,, | 
[V:1] !fermata!G3 & B,3 |]  
[V:2] !fermata!G,,3 |]  


